docs/.gitbook/assets/icon-raindrop-16@light.svg

<svg width="32" height="32" viewBox="0 0 16 16" fill="none" xmlns="http://www.w3.org/2000/svg">
<rect x="0" y="0" width="16" height="16" fill="#fff"/>
<path fill-rule="evenodd" clip-rule="evenodd" d="M8.60313 1.30421L8 1.75L7.39687 1.30421C7.53828 1.11288 7.76209 1 8 1C8.23791 1 8.46172 1.11288 8.60313 1.30421ZM8 3.04573C7.98471 3.06783 7.9692 3.0903 7.95348 3.1131C7.56047 3.68336 7.03768 4.46765 6.51609 5.32673C5.993 6.18829 5.47928 7.11177 5.09868 7.96252C4.70668 8.83876 4.5 9.54357 4.5 10C4.5 12.0681 6.04911 13.5 8 13.5C9.95089 13.5 11.5 12.0681 11.5 10C11.5 9.54357 11.2933 8.83876 10.9013 7.96252C10.5207 7.11177 10.007 6.18829 9.48391 5.32673C8.96232 4.46765 8.43953 3.68336 8.04652 3.1131C8.0308 3.0903 8.01529 3.06783 8 3.04573ZM8 1.75C7.39687 1.30421 7.39681 1.30429 7.39673 1.3044L7.39649 1.30472L7.39573 1.30575L7.39305 1.30938L7.38319 1.32279L7.34609 1.37354C7.3139 1.41773 7.26712 1.48228 7.20783 1.56498C7.08927 1.73036 6.92056 1.96855 6.71839 2.2619C6.31453 2.84789 5.77482 3.65735 5.23391 4.54827C4.6945 5.43671 4.14572 6.41948 3.72945 7.34998C3.32457 8.25499 3 9.20643 3 10C3 12.9319 5.25647 15 8 15C10.7435 15 13 12.9319 13 10C13 9.20643 12.6754 8.25499 12.2706 7.34998C11.8543 6.41948 11.3055 5.43671 10.7661 4.54827C10.2252 3.65735 9.68547 2.84789 9.28161 2.2619C9.07944 1.96855 8.91073 1.73036 8.79217 1.56498C8.73288 1.48228 8.6861 1.41773 8.65391 1.37354L8.61681 1.32279L8.60695 1.30938L8.60427 1.30575L8.60351 1.30472L8.60327 1.3044C8.60319 1.30429 8.60313 1.30421 8 1.75Z" fill="#000"/>
</svg>

<svg xmlns="http://www.w3.org/2000/svg" width="32" height="32" fill="none" viewBox="0 0 16 16"><path fill="#fff" d="M0 0h16v16H0z"/><path fill="#000" fill-rule="evenodd" d="M8.603 1.304 8 1.75l-.603-.446a.75.75 0 0 1 1.206 0M8 3.046l-.047.067a47 47 0 0 0-1.437 2.214c-.523.861-1.037 1.785-1.417 2.636C4.707 8.839 4.5 9.543 4.5 10c0 2.068 1.55 3.5 3.5 3.5s3.5-1.432 3.5-3.5c0-.456-.207-1.161-.599-2.037-.38-.851-.894-1.775-1.417-2.636A47 47 0 0 0 8 3.046M8 1.75l-.603-.446-.001.002-.003.003-.01.014-.037.05-.138.192a48 48 0 0 0-1.974 2.983c-.54.889-1.088 1.871-1.505 2.802C3.325 8.255 3 9.206 3 10c0 2.932 2.256 5 5 5 2.743 0 5-2.068 5-5 0-.794-.325-1.745-.73-2.65-.416-.93-.964-1.913-1.504-2.802a48 48 0 0 0-2.112-3.174l-.037-.051-.01-.014-.003-.003v-.001z" clip-rule="evenodd"/></svg>
